packages/assets/static/images/icons/stack.svg

<svg width="24" height="24" viewBox="0 0 24 24" xmlns="http://www.w3.org/2000/svg">
<path d="M21.6478 16.125C21.7469 16.297 21.7738 16.5011 21.7226 16.6928C21.6715 16.8845 21.5465 17.0481 21.375 17.1479L12.375 22.3979C12.2603 22.4647 12.1299 22.5 11.9972 22.5C11.8644 22.5 11.7341 22.4647 11.6194 22.3979L2.61938 17.1479C2.45034 17.0463 2.32811 16.8822 2.27916 16.6912C2.2302 16.5001 2.25846 16.2975 2.35781 16.1272C2.45717 15.9568 2.61962 15.8324 2.81 15.781C3.00037 15.7295 3.20336 15.7551 3.375 15.8522L12 20.8819L20.625 15.8522C20.7969 15.7532 21.0011 15.7263 21.1927 15.7774C21.3844 15.8285 21.5481 15.9535 21.6478 16.125ZM20.625 11.3522L12 16.3819L3.375 11.3522C3.20423 11.2672 3.00748 11.2505 2.82479 11.3054C2.6421 11.3603 2.4872 11.4828 2.39163 11.6479C2.29606 11.813 2.26699 12.0083 2.31035 12.1941C2.3537 12.3798 2.46622 12.5421 2.625 12.6479L11.625 17.8979C11.7397 17.9647 11.8701 18 12.0028 18C12.1356 18 12.2659 17.9647 12.3806 17.8979L21.3806 12.6479C21.4671 12.599 21.5429 12.5334 21.6038 12.4549C21.6647 12.3764 21.7094 12.2867 21.7353 12.1908C21.7612 12.0949 21.7679 11.9948 21.7548 11.8964C21.7417 11.7979 21.7092 11.703 21.6592 11.6172C21.6091 11.5315 21.5426 11.4565 21.4633 11.3966C21.384 11.3367 21.2937 11.2932 21.1975 11.2686C21.1013 11.2439 21.0011 11.2386 20.9028 11.253C20.8046 11.2673 20.7101 11.3011 20.625 11.3522ZM2.25 7.50005C2.2503 7.36868 2.2851 7.2397 2.35091 7.12602C2.41672 7.01233 2.51124 6.91792 2.625 6.85223L11.625 1.60224C11.7397 1.53536 11.8701 1.50012 12.0028 1.50012C12.1356 1.50012 12.2659 1.53536 12.3806 1.60224L21.3806 6.85223C21.4938 6.91829 21.5878 7.01286 21.6531 7.12652C21.7183 7.24018 21.7527 7.36897 21.7527 7.50005C21.7527 7.63112 21.7183 7.75991 21.6531 7.87357C21.5878 7.98724 21.4938 8.08181 21.3806 8.14786L12.3806 13.3979C12.2659 13.4647 12.1356 13.5 12.0028 13.5C11.8701 13.5 11.7397 13.4647 11.625 13.3979L2.625 8.14786C2.51124 8.08218 2.41672 7.98777 2.35091 7.87408C2.2851 7.76039 2.2503 7.63141 2.25 7.50005ZM4.48875 7.50005L12 11.8819L19.5112 7.50005L12 3.11817L4.48875 7.50005Z"/>
</svg>

<svg viewBox="0 0 24 24" xmlns="http://www.w3.org/2000/svg" aria-hidden="true" fill="currentColor"><path d="M21.648 16.125a.75.75 0 0 1-.273 1.023l-9 5.25a.75.75 0 0 1-.756 0l-9-5.25a.75.75 0 0 1 .756-1.296L12 20.882l8.625-5.03a.75.75 0 0 1 1.023.273m-1.023-4.773L12 16.382l-8.625-5.03a.75.75 0 0 0-.75 1.296l9 5.25a.75.75 0 0 0 .756 0l9-5.25a.749.749 0 1 0-.756-1.296M2.25 7.5a.75.75 0 0 1 .375-.648l9-5.25a.75.75 0 0 1 .756 0l9 5.25a.75.75 0 0 1 0 1.296l-9 5.25a.75.75 0 0 1-.756 0l-9-5.25A.75.75 0 0 1 2.25 7.5m2.239 0L12 11.882 19.511 7.5 12 3.118z"/></svg>
